packages/ui-icons/svg/Solid/gradebook-import.svg

<svg viewBox="0 0 1920 1920" version="1.1" xmlns="http://www.w3.org/2000/svg">
    <path d="M1574.51294,138.514824 C1544.13176,108.246588 1507.76471,86.6748235 1468.23529,72.896 L1468.23529,507.832471 L1903.17176,507.832471 C1889.39294,468.303059 1867.93412,431.936 1837.55294,401.667765 L1574.51294,138.514824 Z M1355.29412,620.705882 L1355.29412,56 L451.764706,56 L451.764706,959.529412 L0,959.529412 L0,1072.47059 L451.764706,1072.47059 L451.764706,1863.05882 L1920,1863.05882 L1920,620.705882 L1355.29412,620.705882 Z M887.04,1425.29882 L807.190588,1345.44941 L1080.05647,1072.47059 L564.705882,1072.47059 L564.705882,959.529412 L1080.05647,959.529412 L807.190588,686.663529 L887.04,606.814118 L1296.22588,1016 L887.04,1425.29882 Z" stroke="none" stroke-width="1" fill-rule="evenodd"/>
</svg>

<svg viewBox="0 0 1920 1920" xmlns="http://www.w3.org/2000/svg">
    <path d="M1574.513 138.515c-30.381-30.268-66.748-51.84-106.278-65.619v434.936h434.937c-13.78-39.529-35.238-75.896-65.62-106.164l-263.04-263.153Zm-219.219 482.19V56h-903.53v903.53H0v112.94h451.765v790.589H1920V620.706h-564.706ZM887.04 1425.3l-79.85-79.85 272.866-272.978h-515.35V959.529h515.35L807.191 686.664l79.849-79.85L1296.226 1016 887.04 1425.299Z" fill-rule="evenodd"/>
</svg>
